flags/ch-gr.svg

<svg width="512" height="512" viewBox="0 0 512 512" fill="none" xmlns="http://www.w3.org/2000/svg">
<rect width="512" height="512" fill="var(--flag-palette-white, #eeeeee)"/>
<path d="M256 0H320L352 32L384 0H448L512 64V128L480 160L512 192V256H448L416 224L384 256H320L256 192V128L288 96L256 64V0Z" fill="var(--flag-palette-light-blue, #338af3)"/>
<path d="M0 0H128V256H0V0Z" fill="var(--flag-palette-black, #333333)"/>
<path d="M320 0V64H256V128H384V0H320ZM384 128V256H448V192H512V128H384ZM256 192H320V256H256V192ZM448 0H512V64H448V0Z" fill="var(--flag-palette-yellow, #ffda44)"/>
<path d="M290.999 291C258.999 291 222.999 299 208.999 310C203.999 314 201.999 320 201.999 326C201.999 336 208.999 344 218.999 346L193.999 353C185.469 340.184 174.068 329.534 160.702 321.896C147.335 314.258 132.371 309.842 116.999 309C114.612 308.602 112.165 309.169 110.196 310.575C108.227 311.982 106.897 314.113 106.499 316.5C106.101 318.887 106.668 321.334 108.075 323.303C109.481 325.272 111.612 326.602 113.999 327C146.999 339 158.999 340 170.999 364C149.999 357 135.999 388 122.999 401C119.999 402 118.999 405 118.999 408C118.999 413 122.999 417 127.999 417L133.999 415C146.999 405 159.999 382 177.999 387C234.999 403 243.999 400 282.999 394C251.999 403 252.999 415 274.999 430C263.999 447 249.999 447 233.999 452C229.999 453 226.999 457 226.999 461C226.999 466 230.999 470 235.999 470L240.999 469C259.999 460 280.999 451 300.999 436C299.999 428 287.999 419 308.999 412C317.999 420 322.999 431 349.999 428C353.999 435 359.999 440 356.999 456L344.999 459C339.999 459 336.999 463 336.999 468C336.999 473 340.999 477 345.999 477C348.999 477 351.999 475 352.999 473L370.999 459C372.999 444 368.999 430 362.999 417C348.999 415 345.999 402 339.999 388C351.999 394 361.999 400 371.999 385C357.999 380 343.999 372 332.999 381C293.999 357 277.999 362 252.999 357C261.999 349 263.999 337 260.999 320C286.999 313 329.999 297 356.999 346C359.999 305 326.999 292 290.999 291Z" fill="var(--flag-palette-black, #333333)"/>
</svg>

<svg xmlns="http://www.w3.org/2000/svg" width="512" height="512" fill="none"><path fill="var(--flag-palette-white, #eeeeee)" d="M0 0h512v512H0z"/><path fill="var(--flag-palette-light-blue, #338af3)" d="M256 0h64l32 32 32-32h64l64 64v64l-32 32 32 32v64h-64l-32-32-32 32h-64l-64-64v-64l32-32-32-32z"/><path fill="var(--flag-palette-black, #333333)" d="M0 0h128v256H0z"/><path fill="var(--flag-palette-yellow, #ffda44)" d="M320 0v64h-64v64h128V0zm64 128v128h64v-64h64v-64zm-128 64h64v64h-64zM448 0h64v64h-64z"/><path fill="var(--flag-palette-black, #333333)" d="M291 291c-32 0-68 8-82 19-5 4-7 10-7 16 0 10 7 18 17 20l-25 7a99 99 0 0 0-77-44 9.1 9.1 0 1 0-3 18c33 12 45 13 57 37-21-7-35 24-48 37-3 1-4 4-4 7 0 5 4 9 9 9l6-2c13-10 26-33 44-28 57 16 66 13 105 7-31 9-30 21-8 36-11 17-25 17-41 22-4 1-7 5-7 9 0 5 4 9 9 9l5-1c19-9 40-18 60-33-1-8-13-17 8-24 9 8 14 19 41 16 4 7 10 12 7 28l-12 3c-5 0-8 4-8 9s4 9 9 9c3 0 6-2 7-4l18-14c2-15-2-29-8-42-14-2-17-15-23-29 12 6 22 12 32-3-14-5-28-13-39-4-39-24-55-19-80-24 9-8 11-20 8-37 26-7 69-23 96 26 3-41-30-54-66-55"/></svg>
